X: 19425
T: Jackson's
R: jig
M: 6/8
K: Gmajor
A|BAG Bcd|edc efg|dcB gdB|ABA ABc|
BAG Bcd|edc efg|dcB gdB|cAF G2:|
f|~g3 bag|fed ^cde|dcB gdB|ABA ABd|
~g3 bag|fed ^cde|dcB gdB|cAF GBd|
~g3 bag|fed ^cde|dcB gdB|ABA ABc|
BAG Bcd|edc efg|dcB gdB|cAF G2||

